contributed-vectors/basit.svg

<svg width="192" height="192" version="1.1" viewBox="0 0 192 192" xmlns="http://www.w3.org/2000/svg">
 <path d="m71.895 24c-34.381 0.22919-63.947 32.054-63.947 72 0 16.499 4.2751 34.181 15.182 48.221 10.907 14.039 28.768 23.779 52.818 23.779h64c16.286 0 28.342-7.6482 35.092-17.467 6.7503-9.8186 8.9082-21.2 8.9082-30.533s-2.1152-21.911-7.1465-33.65c-5.0313-11.74-13.463-23.429-27.285-26.193-10.252-2.0504-22.483-1.3407-32.963 5.0918-2.5622-8.2936-6.1357-16.262-11.156-23.059-7.7003-10.425-19.303-18.284-33.502-18.189zm0.10547 16c8.506-0.0567 14.904 4.0842 20.527 11.697 5.6234 7.6131 9.694 18.606 11.529 29.617a8.0008 8.0008 0 0 0 14.254 3.5332c7.8802-10.345 17.399-11.138 28.068-9.0039 6.1782 1.2356 11.746 7.5463 15.715 16.807 3.9687 9.2604 5.8535 20.683 5.8535 27.35s-1.8421 15.285-6.0918 21.467c-4.2497 6.1814-10.194 10.533-21.908 10.533h-64c-19.95 0-32.088-7.1756-40.182-17.594-8.0934-10.418-11.818-24.736-11.818-38.406 0-32.054 23.707-55.838 48.053-56z" style="color-rendering:auto;color:#000000;dominant-baseline:auto;fill:#9abeff;font-feature-settings:normal;font-variant-alternates:normal;font-variant-caps:normal;font-variant-ligatures:normal;font-variant-numeric:normal;font-variant-position:normal;image-rendering:auto;isolation:auto;mix-blend-mode:normal;shape-padding:0;shape-rendering:auto;solid-color:#000000;text-decoration-color:#000000;text-decoration-line:none;text-decoration-style:solid;text-indent:0;text-orientation:mixed;text-transform:none;white-space:normal"/>
 <path d="m55.457 26.6c-26.827 8.3572-47.457 36.038-47.457 69.4 0 16.499 4.2751 34.181 15.182 48.221 10.907 14.039 28.768 23.779 52.818 23.779h64c16.286 0 28.342-7.6482 35.092-17.467 1.5237-2.2163 2.803-4.5136 3.8867-6.8476l-14.473-6.9219c-0.7396 1.663-1.6 3.252-2.5977 4.7031-4.2497 6.1814-10.194 10.533-21.908 10.533h-64c-19.95 0-32.088-7.1756-40.182-17.594-8.0934-10.418-11.818-24.736-11.818-38.406 0-28.077 18.19-49.805 39.064-54.875l-7.6074-14.525z" style="fill:#728dbe"/>
 <path d="m8.0957 100.01c0.64807 15.315 5.059 31.3 15.086 44.207 10.907 14.039 28.768 23.779 52.818 23.779h45.684l-14.314-16h-31.369c-19.95 0-32.088-7.1756-40.182-17.594-6.8818-8.8586-10.594-20.536-11.555-32.238l-16.168-2.1543z" style="fill:#54688c"/>
</svg>

<svg xmlns="http://www.w3.org/2000/svg" width="192" height="192"><path d="M71.895 24c-34.381.23-63.947 32.054-63.947 72 0 16.499 4.275 34.181 15.182 48.221C34.037 158.26 51.898 168 75.948 168h64c16.286 0 28.342-7.648 35.092-17.467 6.75-9.819 8.908-21.2 8.908-30.533s-2.115-21.911-7.146-33.65c-5.032-11.74-13.463-23.429-27.285-26.193-10.252-2.05-22.483-1.34-32.963 5.092-2.563-8.294-6.136-16.262-11.156-23.06-7.7-10.424-19.303-18.283-33.502-18.188zM72 40c8.506-.057 14.904 4.084 20.527 11.697 5.624 7.613 9.694 18.606 11.53 29.617a8 8 0 0 0 14.253 3.533c7.88-10.345 17.4-11.138 28.068-9.004 6.179 1.236 11.746 7.547 15.715 16.807 3.97 9.26 5.854 20.683 5.854 27.35s-1.842 15.285-6.092 21.467C157.605 147.65 151.661 152 139.947 152h-64c-19.95 0-32.088-7.175-40.182-17.594C27.672 123.988 23.947 109.67 23.947 96c0-32.054 23.707-55.838 48.053-56z" style="color-rendering:auto;color:#000;dominant-baseline:auto;fill:#9abeff;font-feature-settings:normal;font-variant-alternates:normal;font-variant-caps:normal;font-variant-ligatures:normal;font-variant-numeric:normal;font-variant-position:normal;image-rendering:auto;isolation:auto;mix-blend-mode:normal;shape-padding:0;shape-rendering:auto;solid-color:#000;text-decoration-color:#000;text-decoration-line:none;text-decoration-style:solid;text-indent:0;text-orientation:mixed;text-transform:none;white-space:normal"/><path d="M55.457 26.6C28.63 34.957 8 62.638 8 96c0 16.499 4.275 34.181 15.182 48.221C34.089 158.26 51.95 168 76 168h64c16.286 0 28.342-7.648 35.092-17.467a46.963 46.963 0 0 0 3.887-6.848l-14.473-6.921c-.74 1.663-1.6 3.252-2.598 4.703C157.658 147.648 151.714 152 140 152H76c-19.95 0-32.088-7.176-40.182-17.594C27.725 123.988 24 109.67 24 96c0-28.077 18.19-49.805 39.064-54.875L55.457 26.6z" style="fill:#728dbe"/><path d="M8.096 100.01c.648 15.315 5.059 31.3 15.086 44.207C34.089 158.256 51.95 167.996 76 167.996h45.684l-14.314-16H76c-19.95 0-32.087-7.176-40.181-17.594-6.882-8.859-10.594-20.536-11.555-32.238L8.096 100.01z" style="fill:#54688c"/></svg>
